X:305
T:Mac the Knife
C:Kurt Weill
Z:Jack Campin, http://www.campin.me.uk/
F:Jack Campin's Nine-Note Tunebook
% last edit 03-02-2013
M:C
L:1/4
Q:1/4=90
K:AMin
E/G/|A A2 D/F/|A A2 D/F/|A A2 c/B/|A3 
G/B/|d c2 B/A/|c D2 E/F/|c D2 c/B/|A3:|

